assets/icons/tram/tram_T7_carto_RVB.svg

<svg id="tram_T7_carto_RVB" xmlns="http://www.w3.org/2000/svg" width="311.7" height="311.8" viewBox="0 0 311.7 311.8">
	<path id="Tracé_17" data-name="Tracé 17" d="M28.3,311.8A28.338,28.338,0,0,1,0,283.5V28.3A28.338,28.338,0,0,1,28.3,0H283.4a28.338,28.338,0,0,1,28.3,28.3V283.4a28.338,28.338,0,0,1-28.3,28.3H28.3Z" fill="#fff"/>
	<path id="Tracé_18" data-name="Tracé 18" d="M118.6,122.3v89.6H94.5V122.3H61V102.7h91.3v19.6H118.6Zm93.7,89.6H187.4c0-14.4,3.9-23.7,13.4-41.4L227.4,121H174.3V102.7h76.4v17.8c-23.8,41.6-38.4,74.2-38.4,91.4"/>
	<path id="Tracé_19" data-name="Tracé 19" d="M283.5,57.4H28.3A14.19,14.19,0,0,1,14.1,43.2V29.1A14.19,14.19,0,0,1,28.3,14.9H283.4a14.19,14.19,0,0,1,14.2,14.2V43.3a14.084,14.084,0,0,1-14.1,14.1m14.1,226.8V270a14.19,14.19,0,0,0-14.2-14.2H28.3A14.19,14.19,0,0,0,14.1,270v14.2a14.19,14.19,0,0,0,14.2,14.2H283.4a14.19,14.19,0,0,0,14.2-14.2" fill="#6e491e"/>
</svg>

<?xml version="1.0" encoding="utf-8"?>
<!-- Generator: Adobe Illustrator 26.3.1, SVG Export Plug-In . SVG Version: 6.00 Build 0)  -->
<svg version="1.1" id="Layer_1" xmlns="http://www.w3.org/2000/svg" xmlns:xlink="http://www.w3.org/1999/xlink" x="0px" y="0px"
	 viewBox="0 0 311.8 311.8" style="enable-background:new 0 0 311.8 311.8;" xml:space="preserve">
<style type="text/css">
	.st0{fill:#FFFFFF;}
	.st1{fill:#6E491E;}
</style>
<g>
	<path class="st0" d="M28.3,311.8C12.7,311.8,0,299.1,0,283.5V28.3C0,12.7,12.7,0,28.3,0h255.1c15.6,0,28.3,12.7,28.3,28.3v255.1
		c0,15.6-12.7,28.3-28.3,28.3H28.3z"/>
	<path d="M118.6,122.3v89.6H94.5v-89.6H61v-19.6h91.3v19.6H118.6z M212.3,211.9h-24.9c0-14.4,3.9-23.7,13.4-41.4l26.6-49.5h-53.1
		v-18.3h76.4v17.8C226.9,162.1,212.3,194.7,212.3,211.9"/>
	<path class="st1" d="M283.5,57.4H28.3c-7.8,0-14.2-6.3-14.2-14.2V29.1c0-7.8,6.3-14.2,14.2-14.2h255.1c7.8,0,14.2,6.3,14.2,14.2
		v14.2C297.6,51.1,291.3,57.4,283.5,57.4 M297.6,284.2V270c0-7.8-6.3-14.2-14.2-14.2H28.3c-7.8,0-14.2,6.3-14.2,14.2v14.2
		c0,7.8,6.3,14.2,14.2,14.2h255.1C291.3,298.4,297.6,292,297.6,284.2"/>
</g>
</svg>
